X: 26891
T: Minor Rigged Ship, The
R: jig
M: 6/8
K: Dminor
e|:fed f2a|fed f2a|gec cde|gec age|
fed f2a|fed f2a|gec age|1 d3 d2e:|2 d3 d2f||
|:a2f a2f|d3 def|g2e g2e|dfe d2f|
a2f a2f|dec B2d|cde age|1 d3 d2f:|2 d3 d2e||

